X: 195
T: Bonny Laboring Boy   #2
R: jig, air
%S: s:1 b:8
B: O'Neill's 1850 #195
O: F.O'Neill
Z: 1997 henrik.norbeck@mailbox.swipnet.se
N: Compacted via repeats and multiple endings [JC]
N: Compacted by using labels and play order [JC]
P: Play AB1 B2A
Q: "Tenderly"
M: 6/8
L: 1/8
K: D
"^A"[|] D !segno![| G2F  G2A | d2c AGF | G2F D2D | D3- HD2 |]\
"^B"[|] A |: d2e =f2e | d2B cdc | B2B A2G | A3 [1 ABc :|2 AG!segno!F |]
